X:13
T:Margaretsville Reel
C:Yvon Cuillerier
Z:robin.beech@mcgill.ca
R:reel
M:2/4
L:1/16
K:Gm
|: d2 | dcBA BG^FG | BdcA BGAB | cBAG AF=EF | CFAB cA^FD |
dcBA BG^FG | BdcA BGAB | c=Bce dc_BA | cBAB G2 ::
d2 | g^fgd BGBd | g^fga g=f=eg | fafc AGFG | Acfg afcf |
g^fgd BGBd | g^fga g=f=eg | f=efc AFAc | BAG^F G2 :|

